static/img/injective-icon.svg

<svg width="50" height="50" viewBox="0 0 50 50" fill="none" xmlns="http://www.w3.org/2000/svg">
<path d="M6.98358 8.17781C7.29005 7.79261 7.61479 7.42198 7.93953 7.05135C7.95409 7.03296 7.98703 7.02926 8.00159 7.01088C8.03083 6.97423 8.07833 6.95215 8.10745 6.91538L8.13669 6.87874C8.36309 6.66948 8.60393 6.44172 8.88166 6.24333C9.86426 5.49737 10.884 4.93069 11.9593 4.55783C15.4081 3.34698 19.2472 4.09318 22.2578 6.93537C26.4615 10.8758 26.0851 17.2236 22.7294 21.4427C18.4889 27.7324 11.2016 36.5075 21.2915 44.3683C23.1057 45.7818 24.4515 46.9471 30.1661 48.5985C26.4287 49.287 22.9632 49.0728 19.1058 48.0876C16.3774 46.5476 12.0877 43.2501 10.6282 38.7965C8.42244 32.0429 14.5118 21.9467 17.4546 18.0582C21.4951 12.6767 14.9573 6.8511 10.144 13.3548C7.62799 16.7442 3.22628 26.3354 4.75595 33.4498C5.65033 37.4842 6.84243 40.425 11.5691 44.4647C10.6926 43.9475 9.84144 43.3608 9.01577 42.7044C-1.96643 32.4745 -0.692306 16.657 6.98358 8.17781Z" fill="url(#paint0_linear_925_2249)"/>
<path d="M42.1825 41.8222C41.876 42.2074 41.5513 42.578 41.2266 42.9487C41.212 42.967 41.1791 42.9707 41.1645 42.9891C41.1353 43.0258 41.0878 43.0479 41.0587 43.0846L41.0294 43.1213C40.803 43.3305 40.5622 43.5583 40.2844 43.7567C39.3018 44.5026 38.2821 45.0693 37.2068 45.4422C33.758 46.653 29.9189 45.9068 26.9083 43.0646C22.7046 39.1242 23.081 32.7765 26.4367 28.5573C30.6772 22.2677 37.9645 13.4925 27.8746 5.6317C26.0604 4.21826 24.7146 3.05293 19 1.40149C22.7374 0.712975 26.2029 0.927151 30.0602 1.9124C32.7887 3.45244 37.0784 6.74989 38.5379 11.2035C40.7437 17.9571 34.6544 28.0533 31.7115 31.9418C27.671 37.3233 34.2088 43.1489 39.0221 36.6452C41.5381 33.2558 45.9398 23.6646 44.4102 16.5502C43.5158 12.5158 42.3237 9.57505 37.597 5.53534C38.4735 6.05255 39.3247 6.63922 40.1503 7.2956C51.1325 17.5256 49.8584 33.343 42.1825 41.8222Z" fill="url(#paint1_linear_925_2249)"/>
<defs>
<linearGradient id="paint0_linear_925_2249" x1="1" y1="24.324" x2="50.3521" y2="24.324" gradientUnits="userSpaceOnUse">
<stop stop-color="#0082FA"/>
<stop offset="1" stop-color="#00F2FE"/>
</linearGradient>
<linearGradient id="paint1_linear_925_2249" x1="-1.18599" y1="25.676" x2="48.1661" y2="25.676" gradientUnits="userSpaceOnUse">
<stop stop-color="#0082FA"/>
<stop offset="1" stop-color="#00F2FE"/>
</linearGradient>
</defs>
</svg>

<svg xmlns="http://www.w3.org/2000/svg" width="50" height="50" fill="none"><path fill="url(#a)" d="M6.984 8.178c.306-.385.63-.756.956-1.127.014-.018.047-.022.062-.04.029-.037.076-.059.105-.096l.03-.036c.226-.21.467-.437.745-.636.982-.746 2.002-1.312 3.077-1.685 3.45-1.211 7.288-.465 10.299 2.377 4.204 3.94 3.827 10.289.471 14.508-4.24 6.29-11.527 15.064-1.437 22.925 1.814 1.414 3.16 2.58 8.874 4.23-3.737.689-7.203.475-11.06-.51-2.729-1.54-7.018-4.838-8.478-9.291-2.206-6.754 3.884-16.85 6.827-20.739 4.04-5.381-2.498-11.207-7.311-4.703-2.516 3.39-6.918 12.98-5.388 20.095.894 4.034 2.086 6.975 6.813 11.015a22 22 0 0 1-2.553-1.76C-1.966 32.474-.692 16.656 6.984 8.177"/><path fill="url(#b)" d="M42.183 41.822c-.307.385-.632.756-.956 1.127-.015.018-.048.022-.062.04-.03.037-.077.059-.106.096l-.03.036c-.226.21-.467.437-.745.636-.982.746-2.002 1.312-3.077 1.685-3.449 1.211-7.288.465-10.299-2.377-4.203-3.94-3.827-10.288-.471-14.508 4.24-6.29 11.528-15.064 1.438-22.925-1.815-1.414-3.16-2.58-8.875-4.23 3.737-.689 7.203-.475 11.06.51 2.729 1.54 7.018 4.838 8.478 9.292 2.206 6.753-3.884 16.85-6.826 20.738-4.041 5.381 2.497 11.207 7.31 4.703 2.516-3.39 6.918-12.98 5.388-20.095-.894-4.034-2.086-6.975-6.813-11.015a22 22 0 0 1 2.553 1.76c10.983 10.23 9.708 26.048 2.032 34.527"/><defs><linearGradient id="a" x1="1" x2="50.352" y1="24.324" y2="24.324" gradientUnits="userSpaceOnUse"><stop stop-color="#0082FA"/><stop offset="1" stop-color="#00F2FE"/></linearGradient><linearGradient id="b" x1="-1.186" x2="48.166" y1="25.676" y2="25.676" gradientUnits="userSpaceOnUse"><stop stop-color="#0082FA"/><stop offset="1" stop-color="#00F2FE"/></linearGradient></defs></svg>
